X: 2023
T: Yüksek Yüksek Tepelere...
C: (Anonim)
O: Turkey
F: http://compmusic.upf.edu/node/140
N: huseyni--turku--aksak--yuksek_yuksek--
N: makam= huseyni
N: form= turku
N: usul= aksak = 9/8
M: 9/8
L: 1/16
K: C _2/4B ^3/4f  
Q: 1/4=216
%%MIDI tuningsystem comma53
f2g4f2 g2f2 g2e2 d2 | dc ded2 c2B2 A2G6  | \
w:  ARANAĞME  |   | 
c2c2 c2B2 c2B2 d2B2 A2 | 
w:   | 
A12z4z2  | e6=f2 g2f2 e4 d2 | dc ded2 c2B2 A2G6  | \
w:   |   |   | 
c3c c2B2 c2B2 d2B2 A2 | 
w:   | 
A12z4z2  | z4 G2A2 A4 e6 | e2 e6e2 =f2g2 e2d2  | \
w:   |  Yük sek  yük sek   |  te pe le *  re   | 
e2d2 c4 d4 e4 d2 | 
w:  ev  *  kur ma sın  | 
d12z4z2  | z4 G2A2 A4 e6 | e2 e6e2 =f2g2 e2d2  | \
w:  lar    |  Yük sek  yük sek   |  te pe le *  re   | 
e2d2 c4 d4 e4 d2 | 
w:  ev  *  kur ma sın  | 
d12z4z2  | e6=f2 g2f2 e4 d2 | dc ded2 c2B2 A2G6  | \
w:  lar    |  Aş rı  aş *  rı   |  mem *  *  *  *  le ke *  te   | 
c4 c2B2 c2B2 d2B2 A2 | 
w:  kız  ver *  me *  sin  | 
A12z4z2  | e6=f2 g2f2 e4 d2 | dc ded2 c2B2 A2G6  | \
w:  ler    |  Aş rı  aş *  rı   |  mem *  *  *  *  le ke *  te   | 
c4 c2B2 c2B2 d2B2 A2 | 
w:  kız  ver *  me *  sin  | 
A12z4z2  | z4 G2A2 A4 e6 | e4e4e2 =f2g2 e2d2  | \
w:  ler    |  An ne si nin   |  bir  ta ne si ni   | 
e2d2 c4 d4 e4 d2 | 
w:  hor  *  gör me sin  | 
d12z4z2  | z4 G2A2 A4 e6 | e4e4e2 =f2g2 e2d2  | \
w:  ler    |  An ne si nin   |  bir  ta ne si ni   | 
e2d2 c4 d4 e4 d2 | 
w:  hor  *  gör me sin  | 
d12z4z2  | f2g4f2 g2f2 g2e2 d2 | dc ded2 c2B2 A2G6  | \
w:  ler    |  U çan  da  kuş *  la ra   |  ma *  *  *  *  lûm  ol *  sun   | 
c2c2 c2B2 c2B2 d2B2 A2 | 
w:  ben  an ne mi  öz *  le  | 
A12z4z2  | e6=f2 g2f2 e4 d2 | dc ded2 c2B2 A2G6  | \
w:  dim    |  Hem  an ne *  mi   |  hem  *  *  *  *  ba ba *  mı   | 
c3c c2B2 c2B2 d2B2 A2 | 
w:  ben  kö yü mü  öz *  le  | 
A12z4z2  | f2g4f2 g2f2 g2e2 d2 | dc ded2 c2B2 A2G6  | \
w:  dim    |  ARANAĞME  |   | 
c2c2 c2B2 c2B2 d2B2 A2 | 
w:   | 
A12z4z2  | e6=f2 g2f2 e4 d2 | dc ded2 c2B2 A2G6  | \
w:   |   |   | 
c3c c2B2 c2B2 d2B2 A2 | 
w:   | 
A12z4z2  | z4 G2A2 A4 e6 | e2 e6e2 =f2g2 e2d2  | \
w:   |  Yük sek  yük sek   |  te pe le *  re   | 
e2d2 c4 d4 e4 d2 | 
w:  ev  *  kur ma sın  | 
d12z4z2  | z4 G2A2 A4 e6 | e2 e6e2 =f2g2 e2d2  | \
w:  lar    |  Yük sek  yük sek   |  te pe le *  re   | 
e2d2 c4 d4 e4 d2 | 
w:  ev  *  kur ma sın  | 
d12z4z2  | e6=f2 g2f2 e4 d2 | dc ded2 c2B2 A2G6  | \
w:  lar    |  Aş rı  aş *  rı   |  mem *  *  *  *  le ke *  te   | 
c4 c2B2 c2B2 d2B2 A2 | 
w:  kız  ver *  me *  sin  | 
A12z4z2  | e6=f2 g2f2 e4 d2 | dc ded2 c2B2 A2G6  | \
w:  ler    |  Aş rı  aş *  rı   |  mem *  *  *  *  le ke *  te   | 
c4 c2B2 c2B2 d2B2 A2 | 
w:  kız  ver *  me *  sin  | 
A12z4z2  | z4 G2A2 A4 e6 | e4e4e2 =f2g2 e2d2  | \
w:  ler    |  An ne si nin   |  bir  ta ne si ni   | 
e2d2 c4 d4 e4 d2 | 
w:  hor  *  gör me sin  | 
d12z4z2  | z4 G2A2 A4 e6 | e4e4e2 =f2g2 e2d2  | \
w:  ler    |  An ne si nin   |  bir  ta ne si ni   | 
e2d2 c4 d4 e4 d2 | 
w:  hor  *  gör me sin  | 
d12z4z2  | f2g4f2 g2f2 g2e2 d2 | dc ded2 c2B2 A2G6  | \
w:  ler    |  U çan  da  kuş *  la ra   |  ma *  *  *  *  lûm  ol *  sun   | 
c2c2 c2B2 c2B2 d2B2 A2 | 
w:  ben  an ne mi  öz *  le  | 
A12z4z2  | e6=f2 g2f2 e4 d2 | dc ded2 c2B2 A2G6  | \
w:  dim    |  Hem  an ne *  mi   |  hem  *  *  *  *  ba ba *  mı   | 
c3c c2B2 c2B2 d2B2 A2 | 
w:  ben  kö yü mü  öz *  le  | 
A12z4z2  | |


